X:2759
L:1/16
M:2/4
K:C
"C" c'bag"G7" bag^f |"C" agec G2EC |"G7" B,DGB AGFB, |"C" CEGc G2EG | c'bag"G7" bag^f | 
"C" agec g2ec |"G7" Bcde fgab |"C" c'ceg c4 :|[K:G]"G" dbbd d2g2 |"D7" daad d2f2 | d2fe dcBA | 
"G" GBGE D4 | dbbd d2g2 |"D7" daad d2f2 | d2fe dcBA |"G" G2Bd g2"_>Teil A" z2 || 
[K:F]"F" a2>c'2"C7" g2>c'2 |"F" f6 c2 | f2>e2 g2>f2 |"C7" e6 c'2 | b2bc' a2ac' | g6 ff | 
 egfe dfed |"F" d2_d2 c2>c'2 | a2>c2"C7" g2>c'2 |"F" f6 c2 | fagf egfe |"Bb" d6 dd | d^cde f2g2 | 
"F" agfa g2f2 |"C7" c2dc =Bcde |"F" f2f2 f2 z2 |]

